svg/color/enj.svg

<svg width="64" height="65" viewBox="0 0 64 65" fill="none" xmlns="http://www.w3.org/2000/svg">
<rect y="0.303711" width="64" height="64" rx="32" fill="#7866D5"/>
<rect x="0.5" y="0.803711" width="63" height="63" rx="31.5" stroke="#070B14" stroke-opacity="0.15"/>
<path d="M44.9851 16.744C46.0691 16.8795 47.1982 16.9698 48.2822 17.1505C50.405 17.557 51.1277 18.641 50.7663 20.8089C50.676 21.6219 50.0437 22.2543 49.2307 22.3897C48.7339 22.4801 48.1919 22.5252 47.695 22.4801C40.6492 22.4801 33.6485 22.5252 26.6026 22.5252C25.5638 22.5252 24.4798 22.6156 23.441 22.7962C19.9632 23.3382 18.6082 24.7835 18.3373 28.3065C18.2018 29.9324 18.2018 29.9324 19.8729 29.9324H47.8757C48.1467 29.9324 48.4177 29.9324 48.6887 29.9324C49.1404 29.9324 49.5468 30.0679 49.9533 30.2938C51.218 31.1068 50.9018 32.4166 50.8567 33.5909C50.8115 34.5394 50.2243 35.0814 49.2307 35.262C48.8242 35.3523 48.4177 35.3523 47.966 35.3523C38.3909 35.3523 28.8157 35.3523 19.2406 35.3523C18.2018 35.3523 18.2018 35.3523 18.2921 36.3912C18.3373 37.3396 18.4276 38.2881 18.6534 39.2366C19.1051 40.9529 20.1439 42.0369 21.9054 42.5337C23.8023 43.0757 25.7896 43.166 27.7317 43.2112C34.5518 43.2112 41.417 43.2112 48.2822 43.2112C49.1404 43.2112 49.9533 43.3015 50.4953 44.1145C51.3535 45.4695 50.9018 47.231 49.5468 48.0891C49.3662 48.2246 49.1855 48.3149 48.9597 48.3601C47.4692 48.8569 45.9336 48.9473 44.3528 48.9924C37.8941 49.1279 31.4805 49.1279 25.067 48.9924C23.0797 48.9473 21.0924 48.7214 19.1502 48.3149C14.5885 47.3665 12.285 45.0178 11.5172 40.4109C11.3365 39.3721 11.2462 38.2881 11.1107 37.2041V28.8033C11.201 27.9903 11.2914 27.1322 11.3817 26.3192C11.9689 21.1251 14.3175 18.5507 19.4212 17.3763C21.2279 16.9698 23.1248 16.8795 24.9315 16.6989L44.9851 16.744Z" fill="white"/>
<path d="M34.6875 49.8957C31.4355 49.8957 28.2288 49.8506 25.022 49.8054C22.9895 49.7602 20.9571 49.5344 18.9698 49.0828C14.0467 48.0439 11.5174 45.4243 10.7044 40.5464C10.5689 39.7786 10.4786 39.0108 10.4334 38.2881C10.3882 37.972 10.3431 37.6558 10.2979 37.2945V37.2041V28.713L10.3882 27.9C10.4334 27.3128 10.5237 26.7708 10.5689 26.2288C11.2012 20.6734 13.8208 17.828 19.2859 16.6085C20.7312 16.2924 22.1314 16.1569 23.5315 16.0214C23.9832 15.9762 24.4348 15.931 24.8865 15.8859H24.9768H45.0756H45.1208C45.4369 15.931 45.7983 15.9762 46.1144 15.9762C46.8822 16.0665 47.6501 16.1117 48.4631 16.2924C51.0375 16.7892 52.0311 18.2345 51.5795 20.8541C51.444 21.9833 50.5407 22.9317 49.3212 23.1124C48.7792 23.2027 48.2372 23.2479 47.6501 23.2479C40.6494 23.2931 33.6035 23.3382 26.6028 23.3382C25.6091 23.3382 24.5703 23.4286 23.5767 23.6092C20.4602 24.106 19.4214 25.2352 19.1504 28.3968C19.1504 28.6678 19.1053 28.9388 19.1053 29.1646C19.2859 29.1646 19.6021 29.1646 19.8731 29.1646H48.6889C49.276 29.1646 49.8632 29.3453 50.36 29.6163C51.8957 30.6099 51.7602 32.1004 51.6698 33.1844C51.6698 33.3199 51.6247 33.5005 51.6247 33.636C51.5343 34.9007 50.7665 35.7588 49.3664 36.0298C48.8695 36.1202 48.4179 36.1202 47.9662 36.1202H19.2859C19.2408 36.1202 19.1504 36.1202 19.1053 36.1202C19.1053 36.1653 19.1053 36.2105 19.1053 36.2557V36.3008C19.1504 37.2493 19.2407 38.1526 19.4666 39.0559C19.8279 40.4561 20.6861 41.3142 22.1314 41.7207C24.0735 42.2627 26.0608 42.353 27.7771 42.353C33.1067 42.3982 38.5266 42.3982 43.811 42.3982H48.3275C49.005 42.3982 50.4052 42.3982 51.2182 43.708C51.7602 44.5662 51.8957 45.5598 51.6698 46.5083C51.444 47.4568 50.8568 48.2698 49.9987 48.8118C49.7729 48.9473 49.5019 49.0828 49.2309 49.1731C47.5597 49.7151 45.8434 49.8054 44.3981 49.8506C41.1913 49.8506 37.9394 49.8957 34.6875 49.8957ZM11.9239 37.159C11.969 37.4751 12.0142 37.7913 12.0142 38.1075C12.1045 38.8301 12.1949 39.5528 12.2852 40.2754C13.0079 44.521 15.0403 46.5986 19.2859 47.502C21.1829 47.9084 23.125 48.1343 25.0671 48.1794C31.4355 48.3149 37.9394 48.3149 44.353 48.1794C45.6628 48.1343 47.2436 48.0439 48.6889 47.5923C48.8244 47.5471 48.9599 47.4568 49.0954 47.4116C49.547 47.0955 49.9084 46.6438 50.0439 46.1018C50.1794 45.5598 50.089 45.0178 49.7729 44.521C49.5019 44.1145 49.1405 43.979 48.2824 43.979H43.7658C38.5266 43.979 33.0615 43.979 27.7319 43.9339C25.9253 43.9339 23.8025 43.8435 21.6797 43.2112C19.6472 42.6692 18.3826 41.3594 17.8858 39.3269C17.6599 38.3333 17.5244 37.2945 17.5244 36.3008V36.2557C17.4793 35.6233 17.4341 35.1717 17.7954 34.7652C18.1568 34.3587 18.6536 34.3587 19.2859 34.3587H48.0114C48.3727 34.3587 48.7792 34.3587 49.1405 34.2684C49.8632 34.1329 50.0439 33.8167 50.089 33.365C50.089 33.1844 50.1342 33.0489 50.1342 32.8682C50.2245 31.7391 50.2245 31.1971 49.5922 30.7906C49.3664 30.6551 49.0502 30.5648 48.7792 30.5648H19.8731C18.8794 30.5648 18.2923 30.5648 17.8406 30.1131C17.389 29.6614 17.4793 29.0291 17.5244 28.0806C17.8406 24.1964 19.4666 22.4349 23.3057 21.8478C24.3897 21.6671 25.4736 21.5768 26.6028 21.5316C33.6487 21.5316 40.6494 21.4864 47.6952 21.4864C48.1921 21.4864 48.6437 21.4864 49.0954 21.3961C49.547 21.3509 49.9084 20.9896 49.9535 20.5379C50.2697 18.7313 49.818 18.1442 48.1017 17.7828C47.3791 17.6473 46.6564 17.557 45.9338 17.5118C45.6176 17.4667 45.2563 17.4215 44.9401 17.4215H24.9768C24.5252 17.4667 24.0735 17.5118 23.6218 17.557C22.2217 17.6925 20.9119 17.7828 19.5569 18.099C14.8145 19.2733 12.7369 21.5768 12.1949 26.4547C12.1497 26.9967 12.0594 27.5387 12.0142 28.1258L11.9239 28.8936V37.159Z" fill="white"/>
</svg>

<svg xmlns="http://www.w3.org/2000/svg" width="64" height="65" fill="none" viewBox="0 0 64 65"><rect width="64" height="64" y=".304" fill="#7866D5" rx="32"/><rect width="63" height="63" x=".5" y=".804" stroke="#070B14" stroke-opacity=".15" rx="31.5"/><path fill="#fff" d="M44.985 16.744c1.084.136 2.213.226 3.297.407 2.123.406 2.846 1.49 2.484 3.658-.09.813-.722 1.445-1.535 1.58a6 6 0 0 1-1.536.091c-7.046 0-14.047.045-21.092.045-1.04 0-2.123.09-3.162.271-3.478.542-4.833 1.988-5.104 5.51-.135 1.626-.135 1.626 1.536 1.626h28.816c.451 0 .858.136 1.264.362 1.265.813.949 2.123.904 3.297-.045.948-.633 1.49-1.626 1.671-.407.09-.813.09-1.265.09H19.241c-1.04 0-1.04 0-.949 1.04.045.948.136 1.896.361 2.845.452 1.716 1.49 2.8 3.252 3.297 1.897.542 3.885.632 5.827.677h20.55c.858 0 1.671.09 2.213.904.858 1.354.407 3.116-.948 3.974a1.4 1.4 0 0 1-.587.271c-1.49.497-3.026.587-4.607.632a456 456 0 0 1-19.286 0 32.5 32.5 0 0 1-5.917-.677c-4.561-.948-6.865-3.297-7.633-7.904-.18-1.039-.27-2.123-.406-3.207v-8.4c.09-.814.18-1.672.27-2.485.588-5.194 2.937-7.768 8.04-8.943 1.807-.406 3.704-.497 5.51-.677z"/><path fill="#fff" d="M34.688 49.896c-3.253 0-6.46-.045-9.666-.09a30.4 30.4 0 0 1-6.052-.723c-4.923-1.04-7.453-3.659-8.266-8.537a21 21 0 0 1-.27-2.258c-.046-.316-.09-.632-.136-.993v-8.582l.09-.813c.045-.587.136-1.13.18-1.671.633-5.556 3.253-8.401 8.718-9.62 1.445-.317 2.845-.452 4.246-.588l1.355-.135H45.12c.316.045.677.09.993.09.768.09 1.536.136 2.35.316 2.574.497 3.567 1.942 3.116 4.562-.136 1.13-1.04 2.078-2.259 2.258a10 10 0 0 1-1.67.136c-7.002.045-14.048.09-21.048.09-.994 0-2.033.09-3.026.271-3.117.497-4.156 1.626-4.427 4.788 0 .27-.045.542-.045.768H48.69c.587 0 1.174.18 1.671.451 1.536.994 1.4 2.484 1.31 3.568 0 .136-.045.317-.045.452-.09 1.265-.858 2.123-2.259 2.394-.496.09-.948.09-1.4.09h-28.86v.181c.044.948.135 1.852.36 2.755.362 1.4 1.22 2.258 2.665 2.665 1.942.542 3.93.632 5.646.632 5.33.045 10.75.045 16.034.045h4.517c.677 0 2.077 0 2.89 1.31.542.858.678 1.852.452 2.8A3.74 3.74 0 0 1 50 48.812a4 4 0 0 1-.768.361c-1.671.542-3.388.632-4.833.678-3.207 0-6.459.045-9.71.045M11.924 37.159c.045.316.09.632.09.949l.271 2.167c.723 4.246 2.755 6.324 7 7.227 1.898.406 3.84.632 5.782.677a456 456 0 0 0 19.286 0c1.31-.045 2.89-.135 4.336-.587.135-.045.27-.135.406-.18.452-.316.813-.768.949-1.31a1.98 1.98 0 0 0-.271-1.581c-.271-.407-.633-.542-1.49-.542h-4.517c-5.24 0-10.704 0-16.034-.045-1.807 0-3.93-.09-6.052-.723-2.033-.542-3.297-1.852-3.794-3.884a14 14 0 0 1-.362-3.026v-.045c-.045-.633-.09-1.084.271-1.49.362-.407.859-.407 1.49-.407h28.726c.362 0 .768 0 1.13-.09.722-.136.903-.452.948-.904 0-.18.045-.316.045-.497.09-1.129.09-1.67-.542-2.077a1.7 1.7 0 0 0-.813-.226H19.873c-.994 0-1.58 0-2.032-.452s-.362-1.084-.317-2.032c.317-3.885 1.943-5.646 5.782-6.233a26 26 0 0 1 3.297-.316c7.046 0 14.046-.046 21.092-.046.497 0 .949 0 1.4-.09a.96.96 0 0 0 .858-.858c.317-1.807-.135-2.394-1.851-2.755a18 18 0 0 0-2.168-.271 7 7 0 0 0-.994-.09H24.977l-1.355.135c-1.4.136-2.71.226-4.065.542-4.742 1.174-6.82 3.478-7.362 8.356-.045.542-.136 1.084-.18 1.67l-.091.769z"/></svg>
